tools/download-figma-icons/icons/outlined-medium/washing-machine.svg

<svg width="24" height="24" viewBox="0 0 24 24" fill="none" xmlns="http://www.w3.org/2000/svg">
<path fill-rule="evenodd" clip-rule="evenodd" d="M2.25 0H21.75C22.1625 0 22.5 0.3375 22.5 0.75V23.25C22.5 23.6625 22.1625 24 21.75 24H2.25C1.8375 24 1.5 23.6625 1.5 23.25V0.75C1.5 0.3375 1.8375 0 2.25 0ZM3 1.5V22.5H21V1.5H3ZM19.125 13.875C19.125 17.805 15.93 21 12 21C8.07 21 4.875 17.805 4.875 13.875C4.875 9.945 8.07 6.75 12 6.75C15.93 6.75 19.125 9.945 19.125 13.875ZM6.4425 14.715C6.855 17.415 9.18 19.5 12 19.5H12.0075C14.8125 19.5 17.145 17.43 17.5575 14.73C17.5162 14.7081 17.4756 14.687 17.4356 14.6662L17.4355 14.6661C17.3521 14.6228 17.2711 14.5806 17.19 14.535L17.1792 14.5292C16.5313 14.1791 15.9684 13.875 14.775 13.875C13.5816 13.875 13.0187 14.1791 12.3708 14.5292L12.36 14.535L12.3404 14.5455C11.6176 14.933 10.7934 15.375 9.2325 15.375C7.89 15.375 7.095 15.0525 6.4425 14.715ZM17.5575 13.035C17.145 10.3275 14.8125 8.25 12 8.25H11.9925C9.1875 8.25 6.855 10.3275 6.4425 13.02C6.57 13.08 6.6975 13.1475 6.8175 13.215L6.82831 13.2208C7.47623 13.5709 8.03913 13.875 9.2325 13.875C10.4259 13.875 10.9888 13.5709 11.6367 13.2208L11.6475 13.215L11.6671 13.2045C12.3899 12.817 13.2141 12.375 14.775 12.375C16.11 12.375 16.905 12.6975 17.5575 13.035ZM18.375 5.25C18.9963 5.25 19.5 4.74632 19.5 4.125C19.5 3.50368 18.9963 3 18.375 3C17.7537 3 17.25 3.50368 17.25 4.125C17.25 4.74632 17.7537 5.25 18.375 5.25ZM16.5 4.125C16.5 4.74632 15.9963 5.25 15.375 5.25C14.7537 5.25 14.25 4.74632 14.25 4.125C14.25 3.50368 14.7537 3 15.375 3C15.9963 3 16.5 3.50368 16.5 4.125Z" fill="black"/>
</svg>

<svg xmlns="http://www.w3.org/2000/svg" width="24" height="24" fill="none" viewBox="0 0 24 24"><path fill="currentColor" fill-rule="evenodd" d="M2.25 0h19.5c.413 0 .75.338.75.75v22.5c0 .413-.337.75-.75.75H2.25a.75.75 0 0 1-.75-.75V.75c0-.412.337-.75.75-.75M3 1.5v21h18v-21zm16.125 12.375A7.13 7.13 0 0 1 12 21a7.13 7.13 0 0 1-7.125-7.125A7.13 7.13 0 0 1 12 6.75a7.13 7.13 0 0 1 7.125 7.125m-12.683.84C6.855 17.415 9.18 19.5 12 19.5h.008c2.805 0 5.137-2.07 5.55-4.77l-.122-.064a8 8 0 0 1-.246-.131l-.01-.006c-.649-.35-1.212-.654-2.405-.654s-1.756.304-2.404.654l-.011.006-.02.01c-.722.388-1.547.83-3.107.83-1.343 0-2.138-.322-2.79-.66m11.116-1.68C17.145 10.328 14.813 8.25 12 8.25h-.008c-2.805 0-5.137 2.078-5.55 4.77.128.06.255.128.375.195l.011.006c.648.35 1.211.654 2.404.654 1.194 0 1.757-.304 2.405-.654l.01-.006.02-.01c.723-.388 1.547-.83 3.108-.83 1.335 0 2.13.322 2.783.66m.817-7.785a1.125 1.125 0 1 0 0-2.25 1.125 1.125 0 0 0 0 2.25M16.5 4.125a1.125 1.125 0 1 1-2.25 0 1.125 1.125 0 0 1 2.25 0" clip-rule="evenodd"/></svg>
